image/svg/Mars_Inc.svg

<?xml version="1.0" encoding="UTF-8" standalone="no"?>
<!-- Created with Inkscape (http://www.inkscape.org/) -->

<svg
   xmlns:dc="http://purl.org/dc/elements/1.1/"
   xmlns:cc="http://creativecommons.org/ns#"
   xmlns:rdf="http://www.w3.org/1999/02/22-rdf-syntax-ns#"
   xmlns:svg="http://www.w3.org/2000/svg"
   xmlns="http://www.w3.org/2000/svg"
   xmlns:sodipodi="http://sodipodi.sourceforge.net/DTD/sodipodi-0.dtd"
   xmlns:inkscape="http://www.inkscape.org/namespaces/inkscape"
   version="1.0"
   width="239.07321"
   height="47.902271"
   id="svg4677"
   sodipodi:version="0.32"
   inkscape:version="0.91 r13725"
   sodipodi:docname="Mars_Inc.svg"
   inkscape:output_extension="org.inkscape.output.svg.inkscape">
  <metadata
     id="metadata2388">
    <rdf:RDF>
      <cc:Work
         rdf:about="">
        <dc:format>image/svg+xml</dc:format>
        <dc:type
           rdf:resource="http://purl.org/dc/dcmitype/StillImage" />
        <dc:title></dc:title>
      </cc:Work>
    </rdf:RDF>
  </metadata>
  <sodipodi:namedview
     inkscape:window-height="837"
     inkscape:window-width="1600"
     inkscape:pageshadow="2"
     inkscape:pageopacity="0.0"
     guidetolerance="10.0"
     gridtolerance="10.0"
     objecttolerance="10.0"
     borderopacity="1.0"
     bordercolor="#666666"
     pagecolor="#ffffff"
     id="base"
     showgrid="false"
     showguides="true"
     inkscape:guide-bbox="true"
     inkscape:zoom="3.3354603"
     inkscape:cx="74.728408"
     inkscape:cy="0.51833489"
     inkscape:window-x="-8"
     inkscape:window-y="-8"
     inkscape:current-layer="svg4677"
     fit-margin-top="0"
     fit-margin-left="0"
     fit-margin-right="0"
     fit-margin-bottom="0"
     inkscape:window-maximized="1" />
  <defs
     id="defs4679">
    <inkscape:perspective
       sodipodi:type="inkscape:persp3d"
       inkscape:vp_x="0 : 526.18109 : 1"
       inkscape:vp_y="0 : 1000 : 0"
       inkscape:vp_z="744.09448 : 526.18109 : 1"
       inkscape:persp3d-origin="372.04724 : 350.78739 : 1"
       id="perspective2390" />
  </defs>
  <g
     id="layer1"
     transform="matrix(0.857759,0,0,0.857759,-136.83543,-309.70383)">
    <path
       d="m 184.05982,445.7929 13.41154,0.0634 0,1.50198 c -2.31289,0.19749 -3.82891,0.74044 -4.54808,1.62884 -0.71929,0.88852 -1.07891,3.03916 -1.07884,6.45193 l 0,4.06154 0,39.68463 c -7e-5,3.46924 0.3948,5.61988 1.18461,6.45193 0.78968,0.83205 2.5384,1.30449 5.24616,1.41731 l 0,1.73461 -21.4077,0 0,-1.73461 c 2.67943,-0.11282 4.41405,-0.60641 5.20385,-1.48077 0.78968,-0.87436 1.18456,-3.11666 1.18461,-6.72693 l 0,-3.89231 0,-41.88463 -21.57693,55.80387 -21.02693,-56.73464 0,43.9154 c -2e-5,5.07694 0.47242,8.1654 1.4173,9.26539 0.94486,1.1 3.01089,1.69231 6.19808,1.77693 l 0,1.6923 -17.26154,0 0.0423,-1.73461 c 3.13077,-0.0282 5.18269,-0.59936 6.15578,-1.71346 0.97306,-1.1141 1.4596,-4.37885 1.45961,-9.79424 l 0,-6.17693 0,-33.16924 c -10e-6,-3.80764 -0.35962,-6.18392 -1.07884,-7.12885 -0.71924,-0.94481 -2.23527,-1.51597 -4.54808,-1.71346 l 0,-1.54164 14.38462,-0.0238 18.02308,48.61156 18.6154,-48.61156 z m 31.05385,39.5154 17.5154,0 -7.91154,-26.52693 -9.60386,26.52693 z m -0.76153,1.98847 -3.04616,8.41923 c -0.4795,1.35386 -0.86026,2.6654 -1.14231,3.93462 -0.28206,1.26924 -0.42308,2.27052 -0.42307,3.00385 -1e-5,1.38205 0.43717,2.39039 1.31153,3.025 0.87435,0.63462 2.55256,1.09295 5.03462,1.375 l -0.0423,1.73461 -17.11394,0 0,-1.73461 c 1.86154,-0.0761 4.97868,-1.19167 6.09279,-2.39039 1.11409,-1.19871 2.30576,-3.54679 3.575,-7.04423 l 20.13847,-52.88059 0.76154,0 15.61154,49.74982 c 0.11278,0.45129 0.29611,1.07181 0.55,1.86154 2.05893,6.88206 7.09295,10.45 10.61864,10.70385 l -0.0423,1.73461 -25.08787,0 0,-1.73461 c 2.56663,-0.28205 4.27304,-0.66987 5.11923,-1.16346 0.84612,-0.49359 1.2692,-1.26218 1.26923,-2.30577 -3e-5,-0.50769 -0.0564,-1.0859 -0.16923,-1.73462 -0.11285,-0.64871 -0.28208,-1.33974 -0.50769,-2.07308 l -3.72308,-12.48077 -18.78462,0 z m 58.55387,-12.39616 c 0.25382,3e-5 0.62754,0.0141 1.12115,0.0423 0.49357,0.0282 0.86729,0.0423 1.12116,0.0423 5.75382,4e-5 10.01279,-1.17753 12.77692,-3.53269 2.76407,-2.35509 4.14612,-6.0006 4.14616,-10.93655 -4e-5,-4.56918 -1.09299,-7.89033 -3.27885,-9.96346 -2.18593,-2.07302 -5.66221,-3.10956 -10.42885,-3.10962 -0.81797,6e-5 -1.68528,0.0424 -2.60192,0.12692 -0.91669,0.0847 -1.86861,0.2116 -2.85577,0.38077 l 0,26.95002 z m 0,20.05385 0,4.48462 c -2e-5,3.30001 0.3737,5.34488 1.12115,6.13462 0.74742,0.78974 2.50318,1.28333 5.26731,1.48077 l 0.0423,1.73461 -22.04232,0 0,-1.73461 c 2.70769,-0.11282 4.45641,-0.61346 5.24616,-1.50193 0.78973,-0.88845 1.1846,-3.27884 1.18461,-7.17115 l 0,-3.42693 0,-38.75386 c -10e-6,-3.80764 -0.35962,-6.18392 -1.07884,-7.12885 -0.71924,-0.94481 -2.23527,-1.51597 -4.54808,-1.71346 l 0,-1.81924 23.90386,-0.25384 c 5.86663,6e-5 10.39355,1.3257 13.58077,3.97692 3.18714,2.65134 4.78073,6.40262 4.78077,11.25385 -4e-5,4.48467 -1.52312,8.02441 -4.56923,10.61924 -3.0462,2.59491 -7.5026,4.14619 -13.36924,4.65385 3.89228,1.12824 6.86792,2.49618 8.92693,4.10385 2.05893,1.60772 3.65252,3.76541 4.78077,6.47308 0.70509,1.74874 1.55124,4.18848 2.53846,7.31923 1.97432,6.26155 4.21662,9.39232 6.72693,9.39231 1.18456,10e-6 2.12238,-0.41602 2.81346,-1.24807 0.69097,-0.83205 1.107,-2.05192 1.24808,-3.65962 l 1.39615,0 c -0.14108,3.58206 -1.01544,6.31795 -2.62307,8.20769 -1.60775,1.88975 -3.87826,2.83462 -6.81154,2.83462 -3.77954,0 -6.66351,-1.43141 -8.65193,-4.29423 -1.9885,-2.86282 -3.56094,-8.07371 -4.71731,-15.6327 -0.81799,-5.33075 -2.0026,-8.74357 -3.55385,-10.23847 -1.55131,-1.49484 -4.17439,-2.24227 -7.86923,-2.24231 -0.11285,4e-5 -0.58528,0.0212 -1.41731,0.0635 -0.83208,0.0423 -1.60066,0.0635 -2.30577,0.0635 l 0,18.02308 z m 45.22695,13.75001 c 0.19743,-1.52308 0.3455,-3.025 0.44423,-4.50577 0.0987,-1.48077 0.14807,-2.98269 0.14807,-4.50577 0,-1.91794 -0.0423,-3.8641 -0.12692,-5.83847 -0.0846,-1.97434 -0.21154,-3.9769 -0.38077,-6.00769 l 1.65,0 c 0.5641,6.34617 2.37628,11.32437 5.43654,14.93462 3.06024,3.61026 6.9596,5.41539 11.69809,5.41539 3.72305,0 6.64933,-1.17052 8.77885,-3.51154 2.12945,-2.34102 3.19419,-5.55641 3.19423,-9.64616 -4e-5,-6.45896 -5.45773,-11.86024 -16.37309,-16.20386 -1.26925,-0.50766 -2.22822,-0.88843 -2.87692,-1.1423 -3.69489,-1.46664 -6.50835,-3.52561 -8.44039,-6.17693 -1.93206,-2.65124 -2.89808,-5.76791 -2.89808,-9.35 0,-5.04867 1.63589,-9.30059 4.9077,-12.75578 3.27178,-3.45507 7.37562,-5.18263 12.31154,-5.18269 2.45382,6e-5 5.04164,0.60647 7.76347,1.81923 2.72176,1.21288 4.26599,1.81929 4.63269,1.81923 0.56407,6e-5 1.04355,-0.24674 1.43846,-0.74039 0.39484,-0.49352 0.7333,-1.24801 1.01539,-2.26346 l 1.77692,0 c -0.31029,1.55135 -0.54299,3.10263 -0.69807,4.65385 -0.15517,1.55134 -0.23274,3.17313 -0.2327,4.86539 -4e-5,0.87441 0.0211,1.95325 0.0635,3.23654 0.0423,1.28338 0.10573,2.7994 0.19039,4.54808 l -1.56539,0 c -0.16927,-5.2179 -1.49491,-9.23713 -3.97692,-12.0577 -2.48209,-2.82046 -5.92311,-4.23071 -10.32308,-4.23077 -3.38464,6e-5 -6.10643,1.05775 -8.16539,3.17307 -2.05899,2.11545 -3.08848,4.90775 -3.08846,8.37693 -2e-5,4.87954 4.62562,9.05389 13.87693,12.52308 0.62048,0.22568 1.09997,0.40902 1.43846,0.55 6.2333,2.36927 10.49932,4.92889 12.79808,7.67885 2.29868,2.75003 3.44803,6.39554 3.44808,10.93655 -5e-5,6.00771 -1.77697,10.96476 -5.33077,14.87116 -3.55389,3.90641 -8.0526,5.85962 -13.49616,5.85962 -3.38464,0 -6.51541,-0.83911 -9.39231,-2.51731 -2.87694,-1.6782 -4.42822,-2.51731 -4.65385,-2.51731 -0.59232,0 -1.19168,0.33846 -1.79808,1.01538 -0.60642,0.67693 -1.16347,1.6359 -1.67116,2.87693 l -1.52307,0 z"
       transform="scale(1.22751,0.814658)"
       id="text4700"
       style="font-style:normal;font-weight:normal;font-size:311.92599487px;font-family:'Bitstream Vera Sans';text-align:start;text-anchor:start;fill:#005a8d;fill-opacity:1;stroke:#005a8d;stroke-width:2.04236007px;stroke-linecap:butt;stroke-linejoin:miter;stroke-opacity:1"
       sodipodi:nodetypes="cccscccsccccsccccccsccccscccscccccccccccsssccccscccccccccsssccccsssssssccccsccccscccscccssscscsssccssscssscccsssccssssccsssssssccsssccssssccssssssscc"
       inkscape:connector-curvature="0" />
  </g>
</svg>

<?xml version="1.0" encoding="UTF-8" standalone="no"?>
<!-- Created with Inkscape (http://www.inkscape.org/) -->
<svg xmlns:dc="http://purl.org/dc/elements/1.1/" xmlns:cc="http://creativecommons.org/ns#" xmlns:rdf="http://www.w3.org/1999/02/22-rdf-syntax-ns#" xmlns:svg="http://www.w3.org/2000/svg" xmlns="http://www.w3.org/2000/svg" xmlns:sodipodi="http://sodipodi.sourceforge.net/DTD/sodipodi-0.dtd" xmlns:inkscape="http://www.inkscape.org/namespaces/inkscape" version="1.0" width="278.22247" height="55.982143" id="svg4677" sodipodi:version="0.32" inkscape:version="0.46" sodipodi:docname="Mars Inc.svg" inkscape:output_extension="org.inkscape.output.svg.inkscape">
  <metadata id="metadata2388">
    <rdf:RDF>
      <cc:Work rdf:about="">
        <dc:format>image/svg+xml</dc:format>
        <dc:type rdf:resource="http://purl.org/dc/dcmitype/StillImage"/>
      </cc:Work>
    </rdf:RDF>
  </metadata>
  <sodipodi:namedview inkscape:window-height="721" inkscape:window-width="1024" inkscape:pageshadow="2" inkscape:pageopacity="0.0" guidetolerance="10.0" gridtolerance="10.0" objecttolerance="10.0" borderopacity="1.0" bordercolor="#666666" pagecolor="#ffffff" id="base" showgrid="false" showguides="true" inkscape:guide-bbox="true" inkscape:zoom="3.3354603" inkscape:cx="139.11124" inkscape:cy="27.991072" inkscape:window-x="-4" inkscape:window-y="-4" inkscape:current-layer="svg4677"/>
  <defs id="defs4679">
    <inkscape:perspective sodipodi:type="inkscape:persp3d" inkscape:vp_x="0 : 526.18109 : 1" inkscape:vp_y="0 : 1000 : 0" inkscape:vp_z="744.09448 : 526.18109 : 1" inkscape:persp3d-origin="372.04724 : 350.78739 : 1" id="perspective2390"/>
  </defs>
  <g id="layer1" transform="matrix(0.857759, 0, 0, 0.857759, -117.274, -305.112)">
    <path d="M 184.05982,445.7929 L 197.47136,445.85631 L 197.47136,447.35829 C 195.15847,447.55578 193.64245,448.09873 192.92328,448.98713 C 192.20399,449.87565 191.84437,452.02629 191.84444,455.43906 L 191.84444,459.5006 L 191.84444,499.18523 C 191.84437,502.65447 192.23924,504.80511 193.02905,505.63716 C 193.81873,506.46921 195.56745,506.94165 198.27521,507.05447 L 198.27521,508.78908 L 176.86751,508.78908 L 176.86751,507.05447 C 179.54694,506.94165 181.28156,506.44806 182.07136,505.5737 C 182.86104,504.69934 183.25592,502.45704 183.25597,498.84677 L 183.25597,494.95446 L 183.25597,453.06983 L 161.67904,508.8737 L 140.65211,452.13906 L 140.65211,496.05446 C 140.65209,501.1314 141.12453,504.21986 142.06941,505.31985 C 143.01427,506.41985 145.0803,507.01216 148.26749,507.09678 L 148.26749,508.78908 L 131.00595,508.78908 L 131.04825,507.05447 C 134.17902,507.02626 136.23094,506.45511 137.20403,505.34101 C 138.17709,504.22691 138.66363,500.96216 138.66364,495.54677 L 138.66364,489.36984 L 138.66364,456.2006 C 138.66363,452.39296 138.30402,450.01668 137.5848,449.07175 C 136.86556,448.12694 135.34953,447.55578 133.03672,447.35829 L 133.03672,445.81665 L 147.42134,445.7929 L 165.44442,494.40446 L 184.05982,445.7929 z M 215.11367,485.3083 L 232.62907,485.3083 L 224.71753,458.78137 L 215.11367,485.3083 z M 214.35214,487.29677 L 211.30598,495.716 C 210.82648,497.06986 210.44572,498.3814 210.16367,499.65062 C 209.88161,500.91986 209.74059,501.92114 209.7406,502.65447 C 209.74059,504.03652 210.17777,505.04486 211.05213,505.67947 C 211.92648,506.31409 213.60469,506.77242 216.08675,507.05447 L 216.04444,508.78908 L 198.9305,508.78908 L 198.9305,507.05447 C 200.79204,506.97836 203.90918,505.8628 205.02329,504.66408 C 206.13738,503.46537 207.32905,501.11729 208.59829,497.61985 L 228.73676,444.73926 L 229.4983,444.73926 L 245.10984,494.48908 C 245.22262,494.94037 245.40595,495.56089 245.65984,496.35062 C 247.71877,503.23268 252.75279,506.80062 256.27848,507.05447 L 256.23617,508.78908 L 231.1483,508.78908 L 231.1483,507.05447 C 233.71493,506.77242 235.42134,506.3846 236.26753,505.89101 C 237.11365,505.39742 237.53673,504.62883 237.53676,503.58524 C 237.53673,503.07755 237.48032,502.49934 237.36753,501.85062 C 237.25468,501.20191 237.08545,500.51088 236.85984,499.77754 L 233.13676,487.29677 L 214.35214,487.29677 z M 272.90601,474.90061 C 273.15983,474.90064 273.53355,474.91474 274.02716,474.94291 C 274.52073,474.97115 274.89445,474.98526 275.14832,474.98522 C 280.90214,474.98526 285.16111,473.80769 287.92524,471.45253 C 290.68931,469.09744 292.07136,465.45193 292.0714,460.51598 C 292.07136,455.9468 290.97841,452.62565 288.79255,450.55252 C 286.60662,448.4795 283.13034,447.44296 278.3637,447.4429 C 277.54573,447.44296 276.67842,447.48527 275.76178,447.56982 C 274.84509,447.6545 273.89317,447.78142 272.90601,447.95059 L 272.90601,474.90061 z M 272.90601,494.95446 L 272.90601,499.43908 C 272.90599,502.73909 273.27971,504.78396 274.02716,505.5737 C 274.77458,506.36344 276.53034,506.85703 279.29447,507.05447 L 279.33678,508.78908 L 257.29446,508.78908 L 257.29446,507.05447 C 260.00215,506.94165 261.75087,506.44101 262.54062,505.55254 C 263.33035,504.66409 263.72522,502.2737 263.72523,498.38139 L 263.72523,494.95446 L 263.72523,456.2006 C 263.72522,452.39296 263.36561,450.01668 262.64639,449.07175 C 261.92715,448.12694 260.41112,447.55578 258.09831,447.35829 L 258.09831,445.53905 L 282.00217,445.28521 C 287.8688,445.28527 292.39572,446.61091 295.58294,449.26213 C 298.77008,451.91347 300.36367,455.66475 300.36371,460.51598 C 300.36367,465.00065 298.84059,468.54039 295.79448,471.13522 C 292.74828,473.73013 288.29188,475.28141 282.42524,475.78907 C 286.31752,476.91731 289.29316,478.28525 291.35217,479.89292 C 293.4111,481.50064 295.00469,483.65833 296.13294,486.366 C 296.83803,488.11474 297.68418,490.55448 298.6714,493.68523 C 300.64572,499.94678 302.88802,503.07755 305.39833,503.07754 C 306.58289,503.07755 307.52071,502.66152 308.21179,501.82947 C 308.90276,500.99742 309.31879,499.77755 309.45987,498.16985 L 310.85602,498.16985 C 310.71494,501.75191 309.84058,504.4878 308.23295,506.37754 C 306.6252,508.26729 304.35469,509.21216 301.42141,509.21216 C 297.64187,509.21216 294.7579,507.78075 292.76948,504.91793 C 290.78098,502.05511 289.20854,496.84422 288.05217,489.28523 C 287.23418,483.95448 286.04957,480.54166 284.49832,479.04676 C 282.94701,477.55192 280.32393,476.80449 276.62909,476.80445 C 276.51624,476.80449 276.04381,476.82564 275.21178,476.86792 C 274.3797,476.91025 273.61112,476.93141 272.90601,476.93138 L 272.90601,494.95446 z M 318.13296,508.70447 C 318.33039,507.18139 318.47846,505.67947 318.57719,504.1987 C 318.6759,502.71793 318.72526,501.21601 318.72526,499.69293 C 318.72526,497.77499 318.68295,495.82883 318.59834,493.85446 C 318.51372,491.88012 318.3868,489.87756 318.21757,487.84677 L 319.86757,487.84677 C 320.43167,494.19294 322.24385,499.17114 325.30411,502.78139 C 328.36435,506.39165 332.26371,508.19678 337.0022,508.19678 C 340.72525,508.19678 343.65153,507.02626 345.78105,504.68524 C 347.9105,502.34422 348.97524,499.12883 348.97528,495.03908 C 348.97524,488.58012 343.51755,483.17884 332.60219,478.83522 C 331.33294,478.32756 330.37397,477.94679 329.72527,477.69292 C 326.03038,476.22628 323.21692,474.16731 321.28488,471.51599 C 319.35282,468.86475 318.3868,465.74808 318.3868,462.16599 C 318.3868,457.11732 320.02269,452.8654 323.2945,449.41021 C 326.56628,445.95514 330.67012,444.22758 335.60604,444.22752 C 338.05986,444.22758 340.64768,444.83399 343.36951,446.04675 C 346.09127,447.25963 347.6355,447.86604 348.0022,447.86598 C 348.56627,447.86604 349.04575,447.61924 349.44066,447.12559 C 349.8355,446.63207 350.17396,445.87758 350.45605,444.86213 L 352.23297,444.86213 C 351.92268,446.41348 351.68998,447.96476 351.5349,449.51598 C 351.37973,451.06732 351.30216,452.68911 351.3022,454.38137 C 351.30216,455.25578 351.32332,456.33462 351.36566,457.61791 C 351.40793,458.90129 351.47139,460.41731 351.55605,462.16599 L 349.99066,462.16599 C 349.82139,456.94809 348.49575,452.92886 346.01374,450.10829 C 343.53165,447.28783 340.09063,445.87758 335.69066,445.87752 C 332.30602,445.87758 329.58423,446.93527 327.52527,449.05059 C 325.46628,451.16604 324.43679,453.95834 324.43681,457.42752 C 324.43679,462.30706 329.06243,466.48141 338.31374,469.9506 C 338.93422,470.17628 339.41371,470.35962 339.7522,470.5006 C 345.9855,472.86987 350.25152,475.42949 352.55028,478.17945 C 354.84896,480.92948 355.99831,484.57499 355.99836,489.116 C 355.99831,495.12371 354.22139,500.08076 350.66759,503.98716 C 347.1137,507.89357 342.61499,509.84678 337.17143,509.84678 C 333.78679,509.84678 330.65602,509.00767 327.77912,507.32947 C 324.90218,505.65127 323.3509,504.81216 323.12527,504.81216 C 322.53295,504.81216 321.93359,505.15062 321.32719,505.82754 C 320.72077,506.50447 320.16372,507.46344 319.65603,508.70447 L 318.13296,508.70447 z" transform="scale(1.22751, 0.814658)" id="text4700" style="font-size: 311.926px; font-style: normal; font-weight: normal; text-align: start; text-anchor: start; fill: rgb(0, 90, 141); fill-opacity: 1; stroke: rgb(0, 90, 141); stroke-width: 2.04236px; stroke-linecap: butt; stroke-linejoin: miter; stroke-opacity: 1; font-family: Bitstream Vera Sans;" sodipodi:nodetypes="cccscccsccccsccccccsccccscccscccccccccccsssccccscccccccccsssccccsssssssccccsccccscccscccssscscsssccssscssscccsssccssssccsssssssccsssccssssccssssssscc"/>
  </g>
</svg>
